img/ModelSfut.svg

<svg width="279" height="53" viewBox="0 0 279 53" fill="none" xmlns="http://www.w3.org/2000/svg">
<path d="M45.59 52L45.52 19.52L29.42 46.4H25.36L9.26 19.94V52H0.58V3H8.07L27.53 35.48L46.64 3H54.13L54.2 52H45.59ZM83.3955 52.49C79.6155 52.49 76.2088 51.6733 73.1755 50.04C70.1421 48.4067 67.7621 46.1433 66.0355 43.25C64.3555 40.31 63.5155 36.9967 63.5155 33.31C63.5155 29.6233 64.3555 26.3333 66.0355 23.44C67.7621 20.5467 70.1421 18.2833 73.1755 16.65C76.2088 15.0167 79.6155 14.2 83.3955 14.2C87.2221 14.2 90.6521 15.0167 93.6855 16.65C96.7188 18.2833 99.0755 20.5467 100.755 23.44C102.482 26.3333 103.345 29.6233 103.345 33.31C103.345 36.9967 102.482 40.31 100.755 43.25C99.0755 46.1433 96.7188 48.4067 93.6855 50.04C90.6521 51.6733 87.2221 52.49 83.3955 52.49ZM83.3955 45C86.6155 45 89.2755 43.9267 91.3755 41.78C93.4755 39.6333 94.5255 36.81 94.5255 33.31C94.5255 29.81 93.4755 26.9867 91.3755 24.84C89.2755 22.6933 86.6155 21.62 83.3955 21.62C80.1755 21.62 77.5155 22.6933 75.4155 24.84C73.3621 26.9867 72.3355 29.81 72.3355 33.31C72.3355 36.81 73.3621 39.6333 75.4155 41.78C77.5155 43.9267 80.1755 45 83.3955 45ZM148.323 0.059997V52H139.923V47.17C138.476 48.9433 136.679 50.2733 134.533 51.16C132.433 52.0467 130.099 52.49 127.533 52.49C123.939 52.49 120.696 51.6967 117.803 50.11C114.956 48.5233 112.716 46.2833 111.083 43.39C109.449 40.45 108.633 37.09 108.633 33.31C108.633 29.53 109.449 26.1933 111.083 23.3C112.716 20.4067 114.956 18.1667 117.803 16.58C120.696 14.9933 123.939 14.2 127.533 14.2C130.006 14.2 132.269 14.62 134.323 15.46C136.376 16.3 138.126 17.56 139.573 19.24V0.059997H148.323ZM128.583 45C130.683 45 132.573 44.5333 134.253 43.6C135.933 42.62 137.263 41.2433 138.243 39.47C139.223 37.6967 139.713 35.6433 139.713 33.31C139.713 30.9767 139.223 28.9233 138.243 27.15C137.263 25.3767 135.933 24.0233 134.253 23.09C132.573 22.11 130.683 21.62 128.583 21.62C126.483 21.62 124.593 22.11 122.913 23.09C121.233 24.0233 119.903 25.3767 118.923 27.15C117.943 28.9233 117.453 30.9767 117.453 33.31C117.453 35.6433 117.943 37.6967 118.923 39.47C119.903 41.2433 121.233 42.62 122.913 43.6C124.593 44.5333 126.483 45 128.583 45ZM194.909 33.52C194.909 34.1267 194.863 34.99 194.769 36.11H165.439C165.953 38.8633 167.283 41.0567 169.429 42.69C171.623 44.2767 174.329 45.07 177.549 45.07C181.656 45.07 185.039 43.7167 187.699 41.01L192.389 46.4C190.709 48.4067 188.586 49.9233 186.019 50.95C183.453 51.9767 180.559 52.49 177.339 52.49C173.233 52.49 169.616 51.6733 166.489 50.04C163.363 48.4067 160.936 46.1433 159.209 43.25C157.529 40.31 156.689 36.9967 156.689 33.31C156.689 29.67 157.506 26.4033 159.139 23.51C160.819 20.57 163.129 18.2833 166.069 16.65C169.009 15.0167 172.323 14.2 176.009 14.2C179.649 14.2 182.893 15.0167 185.739 16.65C188.633 18.2367 190.873 20.5 192.459 23.44C194.093 26.3333 194.909 29.6933 194.909 33.52ZM176.009 21.2C173.209 21.2 170.829 22.04 168.869 23.72C166.956 25.3533 165.789 27.5467 165.369 30.3H186.579C186.206 27.5933 185.063 25.4 183.149 23.72C181.236 22.04 178.856 21.2 176.009 21.2ZM203.314 0.059997H212.064V52H203.314V0.059997ZM258.924 52.7C255.144 52.7 251.481 52.1633 247.934 51.09C244.434 50.0167 241.658 48.5933 239.604 46.82L242.754 39.75C244.761 41.3367 247.211 42.6433 250.104 43.67C253.044 44.65 255.984 45.14 258.924 45.14C262.564 45.14 265.271 44.5567 267.044 43.39C268.864 42.2233 269.774 40.6833 269.774 38.77C269.774 37.37 269.261 36.2267 268.234 35.34C267.254 34.4067 265.994 33.6833 264.454 33.17C262.914 32.6567 260.814 32.0733 258.154 31.42C254.421 30.5333 251.388 29.6467 249.054 28.76C246.768 27.8733 244.784 26.4967 243.104 24.63C241.471 22.7167 240.654 20.15 240.654 16.93C240.654 14.2233 241.378 11.7733 242.824 9.58C244.318 7.34 246.534 5.56666 249.474 4.26C252.461 2.95333 256.101 2.3 260.394 2.3C263.381 2.3 266.321 2.67333 269.214 3.42C272.108 4.16666 274.604 5.24 276.704 6.64L273.834 13.71C271.688 12.45 269.448 11.4933 267.114 10.84C264.781 10.1867 262.518 9.86 260.324 9.86C256.731 9.86 254.048 10.4667 252.274 11.68C250.548 12.8933 249.684 14.5033 249.684 16.51C249.684 17.91 250.174 19.0533 251.154 19.94C252.181 20.8267 253.464 21.5267 255.004 22.04C256.544 22.5533 258.644 23.1367 261.304 23.79C264.944 24.63 267.931 25.5167 270.264 26.45C272.598 27.3367 274.581 28.7133 276.214 30.58C277.894 32.4467 278.734 34.9667 278.734 38.14C278.734 40.8467 277.988 43.2967 276.494 45.49C275.048 47.6833 272.831 49.4333 269.844 50.74C266.858 52.0467 263.218 52.7 258.924 52.7Z" fill="#E51937"/>
</svg>

<svg width="279" height="53" fill="none" xmlns="http://www.w3.org/2000/svg"><path d="M45.59 52l-.07-32.48-16.1 26.88h-4.06L9.26 19.94V52H.58V3h7.49l19.46 32.48L46.64 3h7.49l.07 49h-8.61zm37.805.49c-3.78 0-7.186-.817-10.22-2.45-3.033-1.633-5.413-3.897-7.14-6.79-1.68-2.94-2.52-6.253-2.52-9.94 0-3.687.84-6.977 2.52-9.87 1.727-2.893 4.107-5.157 7.14-6.79 3.034-1.633 6.44-2.45 10.22-2.45 3.827 0 7.257.817 10.29 2.45 3.034 1.633 5.39 3.897 7.07 6.79 1.727 2.893 2.59 6.183 2.59 9.87 0 3.687-.863 7-2.59 9.94-1.68 2.893-4.036 5.157-7.07 6.79-3.033 1.633-6.463 2.45-10.29 2.45zm0-7.49c3.22 0 5.88-1.073 7.98-3.22 2.1-2.147 3.15-4.97 3.15-8.47 0-3.5-1.05-6.323-3.15-8.47-2.1-2.147-4.76-3.22-7.98-3.22-3.22 0-5.88 1.073-7.98 3.22-2.053 2.147-3.08 4.97-3.08 8.47 0 3.5 1.027 6.323 3.08 8.47 2.1 2.147 4.76 3.22 7.98 3.22zM148.323.06V52h-8.4v-4.83a13.495 13.495 0 0 1-5.39 3.99c-2.1.887-4.434 1.33-7 1.33-3.594 0-6.837-.793-9.73-2.38-2.847-1.587-5.087-3.827-6.72-6.72-1.634-2.94-2.45-6.3-2.45-10.08 0-3.78.816-7.117 2.45-10.01 1.633-2.893 3.873-5.133 6.72-6.72 2.893-1.587 6.136-2.38 9.73-2.38 2.473 0 4.736.42 6.79 1.26 2.053.84 3.803 2.1 5.25 3.78V.06h8.75zM128.583 45c2.1 0 3.99-.467 5.67-1.4 1.68-.98 3.01-2.357 3.99-4.13.98-1.773 1.47-3.827 1.47-6.16s-.49-4.387-1.47-6.16c-.98-1.773-2.31-3.127-3.99-4.06-1.68-.98-3.57-1.47-5.67-1.47s-3.99.49-5.67 1.47c-1.68.933-3.01 2.287-3.99 4.06-.98 1.773-1.47 3.827-1.47 6.16s.49 4.387 1.47 6.16c.98 1.773 2.31 3.15 3.99 4.13 1.68.933 3.57 1.4 5.67 1.4zm66.326-11.48c0 .607-.046 1.47-.14 2.59h-29.33c.514 2.753 1.844 4.947 3.99 6.58 2.194 1.587 4.9 2.38 8.12 2.38 4.107 0 7.49-1.353 10.15-4.06l4.69 5.39c-1.68 2.007-3.803 3.523-6.37 4.55-2.566 1.027-5.46 1.54-8.68 1.54-4.106 0-7.723-.817-10.85-2.45-3.126-1.633-5.553-3.897-7.28-6.79-1.68-2.94-2.52-6.253-2.52-9.94 0-3.64.817-6.907 2.45-9.8 1.68-2.94 3.99-5.227 6.93-6.86 2.94-1.633 6.254-2.45 9.94-2.45 3.64 0 6.884.817 9.73 2.45 2.894 1.587 5.134 3.85 6.72 6.79 1.634 2.893 2.45 6.253 2.45 10.08zm-18.9-12.32c-2.8 0-5.18.84-7.14 2.52-1.913 1.633-3.08 3.827-3.5 6.58h21.21c-.373-2.707-1.516-4.9-3.43-6.58-1.913-1.68-4.293-2.52-7.14-2.52zM203.314.06h8.75V52h-8.75V.06zm55.61 52.64c-3.78 0-7.443-.537-10.99-1.61-3.5-1.073-6.276-2.497-8.33-4.27l3.15-7.07c2.007 1.587 4.457 2.893 7.35 3.92 2.94.98 5.88 1.47 8.82 1.47 3.64 0 6.347-.583 8.12-1.75 1.82-1.167 2.73-2.707 2.73-4.62 0-1.4-.513-2.543-1.54-3.43-.98-.933-2.24-1.657-3.78-2.17-1.54-.513-3.64-1.097-6.3-1.75-3.733-.887-6.766-1.773-9.1-2.66-2.286-.887-4.27-2.263-5.95-4.13-1.633-1.913-2.45-4.48-2.45-7.7 0-2.707.724-5.157 2.17-7.35 1.494-2.24 3.71-4.013 6.65-5.32 2.987-1.307 6.627-1.96 10.92-1.96 2.987 0 5.927.373 8.82 1.12 2.894.747 5.39 1.82 7.49 3.22l-2.87 7.07a28.289 28.289 0 0 0-6.72-2.87c-2.333-.653-4.596-.98-6.79-.98-3.593 0-6.276.607-8.05 1.82-1.726 1.213-2.59 2.823-2.59 4.83 0 1.4.49 2.543 1.47 3.43 1.027.887 2.31 1.587 3.85 2.1 1.54.513 3.64 1.097 6.3 1.75 3.64.84 6.627 1.727 8.96 2.66a14.74 14.74 0 0 1 5.95 4.13c1.68 1.867 2.52 4.387 2.52 7.56 0 2.707-.746 5.157-2.24 7.35-1.446 2.193-3.663 3.943-6.65 5.25-2.986 1.307-6.626 1.96-10.92 1.96z" fill="#E51937"/></svg>
